src/Assets/Icons/Post/plus-circle.svg

<svg width="26" height="26" viewBox="0 0 26 26" fill="none" xmlns="http://www.w3.org/2000/svg">
<path d="M13 0C10.4288 0 7.91543 0.762437 5.77759 2.19089C3.63975 3.61935 1.97351 5.64967 0.989572 8.02511C0.00563269 10.4006 -0.251811 13.0144 0.249797 15.5362C0.751405 18.0579 1.98953 20.3743 3.80762 22.1924C5.6257 24.0105 7.94208 25.2486 10.4638 25.7502C12.9856 26.2518 15.5994 25.9944 17.9749 25.0104C20.3503 24.0265 22.3806 22.3602 23.8091 20.2224C25.2376 18.0846 26 15.5712 26 13C26 11.2928 25.6637 9.60235 25.0104 8.02511C24.3571 6.44788 23.3995 5.01477 22.1924 3.80761C20.9852 2.60045 19.5521 1.64288 17.9749 0.989566C16.3977 0.336255 14.7072 0 13 0ZM13 23.4C10.9431 23.4 8.93234 22.79 7.22207 21.6473C5.5118 20.5045 4.17881 18.8803 3.39166 16.9799C2.60451 15.0796 2.39855 12.9885 2.79984 10.9711C3.20112 8.95366 4.19163 7.10055 5.64609 5.64609C7.10056 4.19162 8.95366 3.20112 10.9711 2.79983C12.9885 2.39855 15.0796 2.6045 16.9799 3.39165C18.8803 4.1788 20.5045 5.5118 21.6473 7.22207C22.79 8.93234 23.4 10.9431 23.4 13C23.4 15.7582 22.3043 18.4035 20.3539 20.3539C18.4035 22.3043 15.7583 23.4 13 23.4ZM18.2 11.7H14.3V7.8C14.3 7.45522 14.163 7.12456 13.9192 6.88076C13.6754 6.63696 13.3448 6.5 13 6.5C12.6552 6.5 12.3246 6.63696 12.0808 6.88076C11.837 7.12456 11.7 7.45522 11.7 7.8V11.7H7.8C7.45522 11.7 7.12456 11.837 6.88077 12.0808C6.63697 12.3246 6.5 12.6552 6.5 13C6.5 13.3448 6.63697 13.6754 6.88077 13.9192C7.12456 14.163 7.45522 14.3 7.8 14.3H11.7V18.2C11.7 18.5448 11.837 18.8754 12.0808 19.1192C12.3246 19.363 12.6552 19.5 13 19.5C13.3448 19.5 13.6754 19.363 13.9192 19.1192C14.163 18.8754 14.3 18.5448 14.3 18.2V14.3H18.2C18.5448 14.3 18.8754 14.163 19.1192 13.9192C19.363 13.6754 19.5 13.3448 19.5 13C19.5 12.6552 19.363 12.3246 19.1192 12.0808C18.8754 11.837 18.5448 11.7 18.2 11.7Z" fill="#675EF5"/>
</svg>

<svg xmlns="http://www.w3.org/2000/svg" width="26" height="26" fill="none"><path fill="#675EF5" d="M13 0a13 13 0 1 0 0 26 13 13 0 0 0 0-26Zm0 23.4a10.4 10.4 0 1 1 0-20.8 10.4 10.4 0 0 1 0 20.8Zm5.2-11.7h-3.9V7.8a1.3 1.3 0 0 0-2.6 0v3.9H7.8a1.3 1.3 0 0 0 0 2.6h3.9v3.9a1.3 1.3 0 0 0 2.6 0v-3.9h3.9a1.3 1.3 0 0 0 0-2.6Z"/></svg>
